svgs/sharp-regular/billboard.svg

<svg xmlns="http://www.w3.org/2000/svg" viewBox="0 0 640 512"><!--! Font Awesome Pro 6.6.0 by @fontawesome - https://fontawesome.com License - https://fontawesome.com/license (Commercial License) Copyright 2024 Fonticons, Inc. --><path d="M440 24l0-24L392 0l0 24 0 8L248 32l0-8 0-24L200 0l0 24 0 8L80 32 32 32l0 48 0 272L0 352l0 48 32 0 48 0 216 0 0 88 0 24 48 0 0-24 0-88 216 0 48 0 32 0 0-48-32 0 0-272 0-48-48 0L440 32l0-8zM200 128l-8 0-24 0 0 48 24 0 32 0 32 0 24 0 0-48-24 0-8 0 0-48 144 0 0 48-8 0-24 0 0 48 24 0 32 0 32 0 24 0 0-48-24 0-8 0 0-48 120 0 0 272L80 352 80 80l120 0 0 48z"/></svg>

<svg xmlns="http://www.w3.org/2000/svg" viewBox="0 0 640 512"><!--! Font Awesome Pro 6.4.2 by @fontawesome - https://fontawesome.com License - https://fontawesome.com/license (Commercial License) Copyright 2023 Fonticons, Inc. --><path d="M440 24V0H392V24v8H248V24 0H200V24v8H80 32V80 352H0v48H32 80 296v88 24h48V488 400H560h48 32V352H608V80 32H560 440V24zM200 128h-8H168v48h24 32 32 24V128H256h-8V80H392v48h-8H360v48h24 32 32 24V128H448h-8V80H560V352H80V80H200v48z"/></svg>
